16x16/apps/appimagekit-hyper.svg

<svg height="16" width="16" xmlns="http://www.w3.org/2000/svg"><path d="m4.8 0h6.4c2.66 0 4.8 2.14 4.8 4.8v3.2h-16v-3.2c0-2.66 2.14-4.8 4.8-4.8z" fill="#f746b3"/><path d="m4.8 16h6.4c2.66 0 4.8-2.14 4.8-4.8v-3.2h-16v3.2c0 2.66 2.14 4.8 4.8 4.8z" fill="#fbb54c"/><path d="m5 2h6c1.688 0 3 1.312 3 3v6c0 1.688-1.312 3-3 3h-6c-1.688 0-3-1.312-3-3v-6c0-1.688 1.312-3 3-3z" fill="#17191e"/><path d="m5.625 3-2.625 2.268 1.125.59-.75 2.142 2.625-2.268-1.125-.59zm1.375 4v1h3v-1z" fill="#f4f4f7"/></svg>

<svg xmlns="http://www.w3.org/2000/svg" width="16" height="16" version="1"><path style="fill:#f746b3" d="M4.8 0h6.4C13.86 0 16 2.14 16 4.8V8H0V4.8C0 2.14 2.14 0 4.8 0z"/><path style="fill:#fbb54c" d="M4.8 16h6.4c2.66 0 4.8-2.14 4.8-4.8V8H0v3.2C0 13.86 2.14 16 4.8 16z"/><path style="fill:#17191e" d="M5 2h6c1.688 0 3 1.312 3 3v6c0 1.688-1.312 3-3 3H5c-1.688 0-3-1.312-3-3V5c0-1.688 1.312-3 3-3z"/><path style="fill:#f4f4f7" d="M5.625 3 3 5.268l1.125.59L3.375 8 6 5.732l-1.125-.59L5.625 3zM7 7v1h3V7H7z"/></svg>
